X:55
T:B055-  Canst thou not weave bone-lace?
Q:1/4=120
L:1/8
M:9/8
K:Em
E3/2F/2E G2AB3|d3/2e/2d d2B AFD|E3/2F/2E G2AB3|\
e3E2F G3/2F/2E|:f3/2g/2f a3/2g/2f e3|d3/2e/2d d2B AFD|\
E3/2F/2E G2A B3|e3E2F G3/2F/2E:|]

